dist/img/coop/diagram.svg

<svg width="80" height="80" viewBox="0 0 80 80" fill="none" xmlns="http://www.w3.org/2000/svg">
<rect width="80" height="80" rx="5" fill="#D1327F"/>
<g clip-path="url(#clip0_110_6)">
<path d="M40 10C34.0666 10 28.2664 11.7595 23.3329 15.0559C18.3994 18.3524 14.5543 23.0377 12.2836 28.5195C10.013 34.0013 9.4189 40.0333 10.5765 45.8527C11.734 51.6721 14.5912 57.0176 18.7868 61.2132C22.9824 65.4088 28.3279 68.266 34.1473 69.4236C39.9667 70.5811 45.9987 69.987 51.4805 67.7164C56.9623 65.4458 61.6477 61.6006 64.9441 56.6671C68.2405 51.7336 70 45.9334 70 40C70 32.0435 66.8393 24.4129 61.2132 18.7868C55.5871 13.1607 47.9565 10 40 10V10ZM65 37.5H55C54.4703 34.3976 52.9781 31.5404 50.7347 29.333C48.4914 27.1255 45.6105 25.6796 42.5 25.2V15.2C48.2489 15.7465 53.6313 18.2663 57.7329 22.3314C61.8345 26.3965 64.4023 31.7562 65 37.5ZM40 30C41.9778 30 43.9112 30.5865 45.5557 31.6853C47.2002 32.7841 48.4819 34.3459 49.2388 36.1732C49.9957 38.0004 50.1937 40.0111 49.8079 41.9509C49.422 43.8907 48.4696 45.6725 47.0711 47.0711C45.6726 48.4696 43.8907 49.422 41.9509 49.8079C40.0111 50.1937 38.0004 49.9957 36.1732 49.2388C34.3459 48.4819 32.7841 47.2002 31.6853 45.5557C30.5865 43.9112 30 41.9778 30 40C30 37.3478 31.0536 34.8043 32.9289 32.9289C34.8043 31.0536 37.3478 30 40 30V30ZM15 40C14.9999 33.8024 17.3019 27.8256 21.4594 23.2293C25.6169 18.633 31.3334 15.7448 37.5 15.125V25.125C35.2799 25.5047 33.1739 26.3795 31.3381 27.6844C29.5024 28.9894 27.984 30.691 26.8958 32.6629C25.8076 34.6349 25.1774 36.8266 25.0521 39.0754C24.9267 41.3242 25.3094 43.5724 26.1717 45.6531C27.034 47.7338 28.3538 49.5936 30.0331 51.0945C31.7125 52.5954 33.7083 53.6988 35.8724 54.3229C38.0365 54.947 40.3134 55.0758 42.5341 54.6996C44.7547 54.3234 46.8622 53.452 48.7 52.15L55.825 59.3C52.1654 62.2924 47.7323 64.1858 43.0401 64.7607C38.3479 65.3356 33.5888 64.5683 29.3151 62.5479C25.0413 60.5274 21.4279 57.3367 18.8942 53.3457C16.3604 49.3548 15.0102 44.7273 15 40V40ZM59.375 55.825L52.225 48.7C53.5141 46.8477 54.3687 44.7284 54.725 42.5H64.725C64.302 47.3738 62.4398 52.0119 59.375 55.825Z" fill="#F1EDF3"/>
</g>
<defs>
<clipPath id="clip0_110_6">
<rect width="60" height="60" fill="white" transform="translate(10 10)"/>
</clipPath>
</defs>
</svg>

<svg width="80" height="80" fill="none" xmlns="http://www.w3.org/2000/svg"><rect width="80" height="80" rx="5" fill="#D1327F"/><g clip-path="url(#a)"><path d="M40 10a30 30 0 1 0 0 60 30 30 0 0 0 0-60Zm25 27.5H55a15 15 0 0 0-12.5-12.3v-10A25 25 0 0 1 65 37.5ZM40 30a10 10 0 1 1 0 20 10 10 0 0 1 0-20ZM15 40a25 25 0 0 1 22.5-24.875v10A15 15 0 1 0 48.7 52.15l7.125 7.15A25 25 0 0 1 15 40Zm44.375 15.825-7.15-7.125a15 15 0 0 0 2.5-6.2h10a24.675 24.675 0 0 1-5.35 13.325Z" fill="#F1EDF3"/></g><defs><clipPath id="a"><path fill="#fff" transform="translate(10 10)" d="M0 0h60v60H0z"/></clipPath></defs></svg>
